X:2532
T:Cantar de Navidá (CT 347)
R:Navidá
C:Tradicional
S:Música Tradicional Asturiana, (C) Tello & Tito. Asturies, 2001.
S:http://pagina.de/MusTradAst <telloytito@asturies.org>
N:Canción de Navidad, transcrita en Cabañaquinta, ayuntamiento de Ayer.
N:La hemos oído a un grupo de niños disfrazados de pastores.
N:cantaban la primera parte de la melodía y bailaban la segunda.
O:Cabañaquinta (Ayer)
A:Asturies
Z:Cancioneru de Torner 347
M:3/8
L:1/8
Q:3/8=80
W:Los pastores y pastoras,
W:toditos se reunieron
W:y juntando sus ganados
W:todos marcharon corriendo.
W:
W:Todo será alegría,
W:todo será placer,
W:todo será alabanzas
W:al hojo de San José.
W:
W:Corred, pastorcillos,
W:corred a adorar
W:al Rei de Los Cielos,
W:al Rei de Los Cielos
W:que hanacido ya.
K:G
D
|: G2 B|GGB|(B2 A)|B2 G|GGG|F2 A|AGD :|
G2 A|B2 A|B3|G2 D|
G2 A|B2 A|(BG)D|G2 B|
G2 B|(B2 A)|B2 G|GGG|F2 A|(A G2-)|Gz[Q:3/8=88]G|
_BAG|_BAG|_BAG|d2 d|
d_ed|c_Bc|cdc|_BAB|
c_BA|G3-|Gz||


